.tmp/img/icon-contact.svg

<?xml version="1.0" encoding="UTF-8"?>
<svg width="25px" height="25px" viewBox="0 0 25 25" version="1.1" xmlns="http://www.w3.org/2000/svg" xmlns:xlink="http://www.w3.org/1999/xlink">
    <!-- Generator: Sketch 42 (36781) - http://www.bohemiancoding.com/sketch -->
    <title>Shape</title>
    <desc>Created with Sketch.</desc>
    <defs></defs>
    <g id="Welcome" stroke="none" stroke-width="1" fill="none" fill-rule="evenodd">
        <g id="Desktop-HD" transform="translate(-1340.000000, -345.000000)" fill="#272729">
            <g id="cross" transform="translate(1340.000000, 345.000000)">
                <g id="Capa_1">
                    <g id="Rectangle_45_copy">
                        <path d="M12.3976348,0 C5.55053454,0 0,5.59636438 0,12.5 C0,19.4036356 5.55053454,25 12.3976348,25 C19.244735,25 24.7952696,19.4036356 24.7952696,12.5 C24.7952696,5.59636438 19.244735,0 12.3976348,0 L12.3976348,0 Z M12.9142029,1.05469771 C18.7782842,1.31981209 23.472369,6.06719771 23.7368114,11.9791667 L19.6047931,11.9791667 C19.3506821,8.36928105 16.4950531,5.49064542 12.9142029,5.23439542 L12.9142029,1.05469771 L12.9142029,1.05469771 Z M12.9142029,13.0208333 L18.5716569,13.0208333 C18.3226508,16.055719 15.9247619,18.4729167 12.9142029,18.7239379 L12.9142029,13.0208333 L12.9142029,13.0208333 Z M18.5716569,11.9791667 L12.9142029,11.9791667 L12.9142029,6.27606209 C15.9247619,6.52708333 18.3226508,8.94428105 18.5716569,11.9791667 L18.5716569,11.9791667 Z M11.8810667,11.9791667 L6.22361266,11.9791667 C6.47261875,8.94428105 8.87050769,6.52708333 11.8810667,6.27606209 L11.8810667,11.9791667 L11.8810667,11.9791667 Z M11.8810667,1.05469771 L11.8810667,5.23439542 C8.30021649,5.49064542 5.44462794,8.36928105 5.19047643,11.9791667 L1.0584582,11.9791667 C1.32294107,6.06719771 6.01698542,1.31928105 11.8810667,1.05469771 L11.8810667,1.05469771 Z M11.8810667,23.9453431 C6.01698542,23.680719 1.32294107,18.9328431 1.0584582,13.0208333 L5.19047643,13.0208333 C5.44462794,16.630719 8.30021649,19.5093954 11.8810667,19.7656046 L11.8810667,23.9453431 L11.8810667,23.9453431 Z M6.22361266,13.0208333 L11.8810667,13.0208333 L11.8810667,18.7239379 C8.87050769,18.4729167 6.47257824,16.055719 6.22361266,13.0208333 L6.22361266,13.0208333 Z M12.9142029,23.9453431 L12.9142029,19.7656046 C16.4950531,19.5098856 19.3506416,16.630719 19.6047931,13.0208333 L23.7368114,13.0208333 C23.4728552,18.9328431 18.7782842,23.680719 12.9142029,23.9453431 L12.9142029,23.9453431 Z" id="Shape"></path>
                    </g>
                </g>
            </g>
        </g>
    </g>
</svg>

<svg width="25" height="25" viewBox="0 0 25 25" xmlns="http://www.w3.org/2000/svg"><path d="M12.398 0C5.55 0 0 5.596 0 12.5S5.55 25 12.398 25c6.847 0 12.397-5.596 12.397-12.5S19.245 0 12.398 0zm.516 1.055c5.864.265 10.558 5.012 10.823 10.924h-4.132c-.254-3.61-3.11-6.488-6.69-6.745v-4.18zm0 11.966h5.658c-.25 3.035-2.647 5.452-5.658 5.703V13.02zm5.658-1.042h-5.658V6.276c3.01.251 5.409 2.668 5.658 5.703zm-6.69 0H6.223c.249-3.035 2.647-5.452 5.657-5.703v5.703zm0-10.924v4.18C8.3 5.49 5.444 8.368 5.19 11.978H1.058C1.323 6.067 6.017 1.32 11.881 1.055zm0 22.89c-5.865-.264-10.56-5.012-10.824-10.924H5.19c.255 3.61 3.11 6.488 6.691 6.745v4.18zM6.223 13.021h5.657v5.703c-3.01-.251-5.408-2.668-5.657-5.703zm6.69 10.924v-4.18c3.581-.255 6.437-3.134 6.69-6.744h4.133c-.264 5.912-4.959 10.66-10.823 10.924z" fill="#272729" fill-rule="evenodd"/></svg>
